!!!!SEGMENT: pl-wnifc--13846--055_anonim--piesni-polskie-i-ruskie-ludu-galicyjskiego-55-ty-kozacze-psia-paro.krn
!!!kernsource:
!!!cenid: 18xx:3277
!!!COM: Anonim
!!!COM-rismID: pe30004985
!!!CDT:
!!!CNT:
!!!GTL: Pieśni polskie i ruskie ludu galicyjskiego
!!!OTL: 55. Ty kozacze psia paro
!!!PDT: 1833
!!!AGN:
!!!SMS-siglum: PL-Wnifc
!!!SMS-shelfmark: 13846
!!!SMS-shelfwork: 055 G
!!!NIFC-rismSourceID: 1001037062
!!!NIFC-rismChildID: 1001037062
!!!NIFC-islandoraID:
!!!URL-pdf-islandora:
!!!URL-scan:
!!!ONB-nifc:
!!!AIN: 1 piano 1 vox
!!!key: c
!!!OMD: Allegretto
**kern	**kern	**kern	**text
*part2	*part2	*part1	*part1
*staff3	*staff2	*staff1	*staff1
*I"FORTEPIAN.	*I"FORTEPIAN.	*I"GŁOS.	*
*Ipiano	*Ipiano	*Ivox	*
*ICklav	*ICklav	*ICvox	*
*IGacmp	*IGacmp	*IGsolo	*
*>[A,B,B]	*>[A,B,B]	*>[A,B,B]	*>[A,B,B]
*>A	*>A	*>A	*>A
*clefF4	*clefG2	*clefG2	*
*k[b-e-a-]	*k[b-e-a-]	*k[b-e-a-]	*
*c:	*c:	*c:	*
*M2/4	*M2/4	*M2/4	*
=1-	=1-	=1-	=1-
!	!	!LO:TX:a:t=D.b.I.2.	!
8c\L	8cc\L	8cc\	Ty
8Bn\	8dd\J	8dd\	ko-
8c\	8ee-\L 8cc\	8ee-\	za-
8A-X\J	8ff#X\J 8cc\	8ff#X\	-cze
=2	=2	=2	=2
8G\	8gg\L 8bn\	8gg\	psia
8r	8gg\J 8b\	8gg\	pa-
8G\	4g/^	4g/	-ro,
8r	.	.	.
!!LO:LB:g=original
=3	=3	=3	=3
8C/L 8CC/	8cc/L 8g/ 8e-/	8cc\	cy
8GG/ 8GGG/	8dd/ 8bn/ 8g/ 8d/	8dd\	tia
8C/ 8CC/	8ee-/ 8cc/ 8g/ 8e-/	8ee-\	ły-
8AA-/J 8AAA-/	8ff#X\J 8cc\ 8f#X\	8ff#X\	-cho
=4	=4	=4	=4
8GG/ 8GGG/	8gg\L 8bn\ 8g\	8gg\	na
8r	8gg\J 8dd\ 8b\ 8g\	8gg\	pa-
4GG/ 4GGG/	4g/	4g/	-ło,
=5!|:	=5!|:	=5!|:	=5!|:
*>B	*>B	*>B	*>B
8c\ 8C\	8gg\L 8ee-\ 8cc\ 8g\	8gg\	psia
8r	8gg\J 8ee-\ 8cc\ 8g\	8gg\	pa-
8F/ 8FF/	4aa-\ 4ff\ 4cc\ 4a-\^<	4aa-\	-ro,
8r	.	.	.
!!LO:LB:g=original
=6	=6	=6	=6
8B-X\ 8BB-X\	8ff\L 8dd\ 8b-\ 8f\	8ff\	psia
8r	8ff\J 8dd\ 8b-\ 8f\	8ff\	pa-
8G/ 8GG/	4gg\ 4dd\ 4bn\ 4g\^<	4gg\	-ro,
8r	.	.	.
=7	=7	=7	=7
8c\ 8C\	8ee-\L 8g\	8ee-\	cy
8r	8ee-\ 8g\^	8ee-\	tia
8G\ 8GG\	8dd/ 8f/	8dd\	ły-
8r	8bn/J 8d/	8bn\	-cho
=8	=8	=8	=8
4C/ 4CC/	8cc\L 8e-\	8cc\	na
.	8cc\ 8e-\	8cc\	pa-
4r	8cc\J 8e-\	8cc\	-ło.
.	8r	8r	.
=:|!	=:|!	=:|!	=:|!
*-	*-	*-	*-
!!!system-decoration: s1{(s2,s3)}
!!!RDF**kern: < = below
!!!ENC: Marta Lawrence
!!!END: 2021-11-10
!!!YEC: Copyright 2022 Narodowy Instytut Fryderyka Chopina (https://polishscores.org)
!!!YEM: License CC-BY-4.0 (https://creativecommons.org/licenses/by/4.0)
